svgs/sharp-regular/rectangle-list.svg

<svg xmlns="http://www.w3.org/2000/svg" viewBox="0 0 576 512"><!--! Font Awesome Pro 6.6.0 by @fontawesome - https://fontawesome.com License - https://fontawesome.com/license (Commercial License) Copyright 2024 Fonticons, Inc. --><path d="M48 80l0 352 480 0 0-352L48 80zM0 32l48 0 480 0 48 0 0 48 0 352 0 48-48 0L48 480 0 480l0-48L0 80 0 32zM96 160a32 32 0 1 1 64 0 32 32 0 1 1 -64 0zm104-24l24 0 224 0 24 0 0 48-24 0-224 0-24 0 0-48zm0 96l24 0 224 0 24 0 0 48-24 0-224 0-24 0 0-48zm0 96l24 0 224 0 24 0 0 48-24 0-224 0-24 0 0-48zm-72-40a32 32 0 1 1 0-64 32 32 0 1 1 0 64zM96 352a32 32 0 1 1 64 0 32 32 0 1 1 -64 0z"/></svg>

<svg xmlns="http://www.w3.org/2000/svg" viewBox="0 0 576 512"><!--! Font Awesome Pro 6.4.0 by @fontawesome - https://fontawesome.com License - https://fontawesome.com/license (Commercial License) Copyright 2023 Fonticons, Inc. --><path d="M48 80V432H528V80H48zM0 32H48 528h48V80 432v48H528 48 0V432 80 32zM96 160a32 32 0 1 1 64 0 32 32 0 1 1 -64 0zm104-24h24H448h24v48H448 224 200V136zm0 96h24H448h24v48H448 224 200V232zm0 96h24H448h24v48H448 224 200V328zm-72-40a32 32 0 1 1 0-64 32 32 0 1 1 0 64zM96 352a32 32 0 1 1 64 0 32 32 0 1 1 -64 0z"/></svg>
